SVG_Azure_Grouped/Security/Azure Firewall Virtual Network.svg

<?xml version="1.0" encoding="UTF-8" standalone="no"?>
<!-- Generated by Microsoft Visio, SVG Export Azure Firewall Virtual Network.svg Page-1 -->

<svg
   xmlns:dc="http://purl.org/dc/elements/1.1/"
   xmlns:cc="http://creativecommons.org/ns#"
   xmlns:rdf="http://www.w3.org/1999/02/22-rdf-syntax-ns#"
   xmlns:svg="http://www.w3.org/2000/svg"
   xmlns="http://www.w3.org/2000/svg"
   xmlns:sodipodi="http://sodipodi.sourceforge.net/DTD/sodipodi-0.dtd"
   xmlns:inkscape="http://www.inkscape.org/namespaces/inkscape"
   width="0.80425364in"
   height="0.80442655in"
   viewBox="0 0 57.906188 57.918952"
   xml:space="preserve"
   class="st8"
   version="1.1"
   id="svg60"
   sodipodi:docname="Azure Firewall Virtual Network.svg"
   style="font-size:12px;overflow:visible;color-interpolation-filters:sRGB;fill:none;fill-rule:evenodd;stroke-linecap:square;stroke-miterlimit:3"
   inkscape:version="0.92.5 (2060ec1f9f, 2020-04-08)"><metadata
   id="metadata64"><rdf:RDF><cc:Work
       rdf:about=""><dc:format>image/svg+xml</dc:format><dc:type
         rdf:resource="http://purl.org/dc/dcmitype/StillImage" /></cc:Work></rdf:RDF></metadata><sodipodi:namedview
   pagecolor="#ffffff"
   bordercolor="#666666"
   borderopacity="1"
   objecttolerance="10"
   gridtolerance="10"
   guidetolerance="10"
   inkscape:pageopacity="0"
   inkscape:pageshadow="2"
   inkscape:window-width="640"
   inkscape:window-height="480"
   id="namedview62"
   showgrid="false"
   inkscape:zoom="1.4056937"
   inkscape:cx="38.603975"
   inkscape:cy="38.608694"
   inkscape:window-x="0"
   inkscape:window-y="0"
   inkscape:window-maximized="0"
   inkscape:current-layer="svg60" />
	<style
   type="text/css"
   id="style2">
	<![CDATA[
		.st1 {fill:#9cebff;stroke:none;stroke-linecap:butt;stroke-width:34}
		.st2 {fill:#86d633;stroke:none;stroke-linecap:butt;stroke-width:34}
		.st3 {fill:url(#grad0-10);stroke:none;stroke-linecap:butt;stroke-width:34}
		.st4 {fill:#0078d4;stroke:none;stroke-linecap:butt;stroke-width:34}
		.st5 {fill:url(#grad0-16);stroke:none;stroke-linecap:butt;stroke-width:34}
		.st6 {fill:#ffffff;stroke:none;stroke-linecap:butt;stroke-width:34}
		.st7 {fill:#ffffff;fill-opacity:0.8;stroke:none;stroke-linecap:butt;stroke-width:34}
		.st8 {fill:none;fill-rule:evenodd;font-size:12px;overflow:visible;stroke-linecap:square;stroke-miterlimit:3}
	]]>
	</style>

	<defs
   id="Patterns_And_Gradients">
		<linearGradient
   id="grad0-10"
   x1="0"
   y1="136.4357"
   x2="27.089764"
   y2="136.4357"
   gradientTransform="scale(1.2986456,0.77003304)"
   gradientUnits="userSpaceOnUse">
			<stop
   offset="0"
   stop-color="#0078d4"
   stop-opacity="1"
   id="stop4" />
			<stop
   offset="0.775"
   stop-color="#5ea0ef"
   stop-opacity="1"
   id="stop6" />
		</linearGradient>
		<linearGradient
   id="grad0-16"
   x1="-1.2413685e-05"
   y1="251.42416"
   x2="6.4317694"
   y2="251.42416"
   gradientTransform="scale(2.0404493,0.49008813)"
   gradientUnits="userSpaceOnUse">
			<stop
   offset="0"
   stop-color="#ffffff"
   stop-opacity="1"
   id="stop9" />
			<stop
   offset="1"
   stop-color="#ffffff"
   stop-opacity="1"
   id="stop11" />
		</linearGradient>
	</defs>
	<g
   id="g58"
   transform="translate(-34.003239,-33.996188)">
		<title
   id="title15">Page-1</title>
		<g
   id="group16926-1"
   transform="translate(35.2194,-35.2238)">
			<title
   id="title17">Azure Firewall Virtual Network.16926</title>
			<g
   id="group16927-2">
				<title
   id="title19">g16</title>
				<g
   id="shape16928-3"
   transform="translate(2.91169,-2.95065)">
					<title
   id="title21">path2</title>
					<path
   d="m 41.84,102.59 v 0.02 l 8.7,-0.2 -0.06,-2.72 -8.65,0.2 v -0.05 l -7.22,-0.83 v -7.88 l -0.02,-0.04 5.11,-13.1 -2.53,-0.98 -5.15,13.19 0.01,0.01 -5.53,6.4 -8.7,-6.46 -0.12,-0.09 -5.09,-13.05 -2.53,0.98 5.15,13.19 0.06,-0.02 4.67,10.24 -11.21,-1.56 -0.06,0.09 v -0.04 l -8.61,-0.2 -0.06,2.72 8.61,0.2 0.02,-0.93 5.68,1.82 1.13,3.83 -0.11,4.42 -5.14,13.19 2.53,0.98 5.15,-13.2 -0.42,-0.16 4.06,-3.95 10.57,2.51 1.32,1.12 -1.25,0.48 5.15,13.2 2.53,-0.98 -5.14,-13.19 -0.1,0.03 0.76,-5.48 z"
   class="st1"
   id="path23"
   inkscape:connector-curvature="0"
   style="fill:#9cebff;stroke:none;stroke-width:34;stroke-linecap:butt" />
				</g>
				<g
   id="shape16929-5">
					<title
   id="title26">path4</title>
					<path
   d="m 56.69,98.3 a 4.16325,4.17447 0 1 1 -4.16,-4.17 4.16325,4.17447 0 0 1 4.16,4.17 z M 2.94,94.13 A 4.16325,4.17447 -180 1 0 7.11,98.3 4.16325,4.17447 -180 0 0 2.94,94.13 Z m 11.2,24.66 a 4.16325,4.17447 -180 1 0 4.16,4.18 4.16325,4.17447 -180 0 0 -4.16,-4.18 z m 27.92,0 a 4.16325,4.17447 -180 1 0 4.16,4.18 4.16325,4.17447 -180 0 0 -4.16,-4.18 z M 13.68,69.22 a 4.16325,4.17447 -180 1 0 4.17,4.18 4.16003,4.17124 -180 0 0 -4.17,-4.18 z m 28.69,0 a 4.16325,4.17447 -180 1 0 4.16,4.18 4.16003,4.17124 -180 0 0 -4.16,-4.18 z"
   class="st2"
   id="path28"
   inkscape:connector-curvature="0"
   style="fill:#86d633;stroke:none;stroke-width:34;stroke-linecap:butt" />
				</g>
				<g
   id="shape16930-7"
   transform="translate(10.1475,-13.2707)">
					<title
   id="title31">path6</title>
					<path
   d="m 0,105.06 h 35.18 v 19.68 A 1.17433,1.1775 0 0 1 34,125.92 H 1.18 a 1.17433,1.1775 0 0 1 -1.17,-1.18 v -19.68 z"
   class="st3"
   id="path33"
   inkscape:connector-curvature="0"
   style="fill:url(#grad0-10);stroke:none;stroke-width:34;stroke-linecap:butt" />
				</g>
				<g
   id="shape16931-11"
   transform="translate(10.1539,-34.1269)">
					<title
   id="title36">path8</title>
					<path
   d="m 1.17,118.4 h 32.82 a 1.17433,1.1775 0 0 1 1.18,1.18 v 6.34 H 0 v -6.34 a 1.17433,1.1775 0 0 1 1.17,-1.18 z"
   class="st4"
   id="path38"
   inkscape:connector-curvature="0"
   style="fill:#0078d4;stroke:none;stroke-width:34;stroke-linecap:butt" />
				</g>
				<g
   id="shape16932-13"
   transform="translate(21.2313,-23.3799)">
					<title
   id="title41">path10</title>
					<path
   d="m 11.56,123.22 a 1.56685,1.57107 0 1 1 -1.57,1.57 1.56685,1.57107 0 0 1 1.57,-1.57 z M 5,124.81 A 1.56685,1.57107 -180 1 0 6.56,123.23 1.56685,1.57107 -180 0 0 5,124.81 Z m -5,0 A 1.56685,1.57107 -180 1 0 1.57,123.23 1.56685,1.57107 -180 0 0 0,124.81 Z"
   class="st5"
   id="path43"
   inkscape:connector-curvature="0"
   style="fill:url(#grad0-16);stroke:none;stroke-width:34;stroke-linecap:butt" />
				</g>
				<g
   id="shape16933-17"
   transform="translate(15.5944,-17.1941)">
					<title
   id="title46">path12</title>
					<path
   d="m 8.34,124.9 -0.89,0.9 a 0.405386,0.406478 0 0 1 -0.572688,0 L 0.24,119.17 a 0.807555,0.809731 0 0 1 0,-1.14846 l 0.89,-0.90154 7.21,7.2 a 0.405386,0.406478 0 0 1 0,0.57423 z m 14.82,-7.8 -7.21,7.21 a 0.402169,0.403252 -180 0 0 0,0.57423 l 0.9,0.90577 a 0.402169,0.403252 -180 0 0 0.572688,0 L 24.05,119.15 a 0.810772,0.812957 -180 0 0 0,-1.14846 L 23.15,117.1 Z"
   class="st6"
   id="path48"
   inkscape:connector-curvature="0"
   style="fill:#ffffff;stroke:none;stroke-width:34;stroke-linecap:butt" />
				</g>
				<g
   id="shape16934-19"
   transform="translate(15.5944,-23.0584)">
					<title
   id="title51">path14</title>
					<path
   d="m 7.32,117.32 0.89,0.9 a 0.405386,0.406478 0 0 1 0,0.57423 l -7.07,7.12577 -0.9,-0.9 a 0.807555,0.809731 0 0 1 0,-1.14846 L 6.74,117.32 a 0.405386,0.406478 0 0 1 0.579123,0 z M 24.05,125 a 0.807555,0.809731 -180 0 0 0,-1.14846 L 17.55,117.3 a 0.405386,0.406478 -180 0 0 -0.572688,0 L 16.07,118.21 a 0.405386,0.406478 -180 0 0 0,0.57423 l 7.08,7.12577 0.89,-0.9 z"
   class="st7"
   id="path53"
   inkscape:connector-curvature="0"
   style="fill:#ffffff;fill-opacity:0.8;stroke:none;stroke-width:34;stroke-linecap:butt" />
				</g>
			</g>
		</g>
	</g>
</svg>

<?xml version="1.0" encoding="UTF-8" standalone="no"?>
<!DOCTYPE svg PUBLIC "-//W3C//DTD SVG 1.1//EN" "http://www.w3.org/Graphics/SVG/1.1/DTD/svg11.dtd">
<!-- Generated by Microsoft Visio, SVG Export Azure Firewall Virtual Network.svg Page-1 -->
<svg xmlns="http://www.w3.org/2000/svg" xmlns:xlink="http://www.w3.org/1999/xlink" xmlns:ev="http://www.w3.org/2001/xml-events"
		width="1.74878in" height="1.74884in" viewBox="0 0 125.912 125.917" xml:space="preserve" color-interpolation-filters="sRGB"
		class="st8">
	<style type="text/css">
	<![CDATA[
		.st1 {fill:#9cebff;stroke:none;stroke-linecap:butt;stroke-width:34}
		.st2 {fill:#86d633;stroke:none;stroke-linecap:butt;stroke-width:34}
		.st3 {fill:url(#grad0-10);stroke:none;stroke-linecap:butt;stroke-width:34}
		.st4 {fill:#0078d4;stroke:none;stroke-linecap:butt;stroke-width:34}
		.st5 {fill:url(#grad0-16);stroke:none;stroke-linecap:butt;stroke-width:34}
		.st6 {fill:#ffffff;stroke:none;stroke-linecap:butt;stroke-width:34}
		.st7 {fill:#ffffff;fill-opacity:0.8;stroke:none;stroke-linecap:butt;stroke-width:34}
		.st8 {fill:none;fill-rule:evenodd;font-size:12px;overflow:visible;stroke-linecap:square;stroke-miterlimit:3}
	]]>
	</style>

	<defs id="Patterns_And_Gradients">
		<linearGradient id="grad0-10" x1="0" y1="0" x2="1" y2="0" gradientTransform="rotate(-90 0.5 0.5)">
			<stop offset="0" stop-color="#0078d4" stop-opacity="1"/>
			<stop offset="0.775" stop-color="#5ea0ef" stop-opacity="1"/>
		</linearGradient>
		<linearGradient id="grad0-16" x1="0" y1="0" x2="1" y2="0" gradientTransform="rotate(90 0.5 0.5)">
			<stop offset="0" stop-color="#ffffff" stop-opacity="1"/>
			<stop offset="1" stop-color="#ffffff" stop-opacity="1"/>
		</linearGradient>
	</defs>
	<g>
		<title>Page-1</title>
		<g id="group16533-1" transform="translate(35.2194,-35.2238)">
			<title>Azure Firewall Virtual Network.16533</title>
			<g id="group16534-2">
				<title>g16</title>
				<g id="shape16535-3" transform="translate(2.91169,-2.95065)">
					<title>path2</title>
					<path d="M41.84 102.59 L41.84 102.61 L50.54 102.41 L50.48 99.69 L41.83 99.89 L41.83 99.84 L34.61 99.01 L34.61
								 91.13 L34.59 91.09 L39.7 77.99 L37.17 77.01 L32.02 90.2 L32.03 90.21 L26.5 96.61 L17.8 90.15 L17.68
								 90.06 L12.59 77.01 L10.06 77.99 L15.21 91.18 L15.27 91.16 L19.94 101.4 L8.73 99.84 L8.67 99.93 L8.67
								 99.89 L0.06 99.69 L0 102.41 L8.61 102.61 L8.63 101.68 L14.31 103.5 L15.44 107.33 L15.33 111.75 L10.19
								 124.94 L12.72 125.92 L17.87 112.72 L17.45 112.56 L21.51 108.61 L32.08 111.12 L33.4 112.24 L32.15
								 112.72 L37.3 125.92 L39.83 124.94 L34.69 111.75 L34.59 111.78 L35.35 106.3 L41.84 102.59 Z"
							class="st1"/>
				</g>
				<g id="shape16536-5">
					<title>path4</title>
					<path d="M56.69 98.3 A4.16325 4.17447 0 1 1 52.53 94.13 A4.16325 4.17447 0 0 1 56.69 98.3 ZM2.94 94.13 A4.16325
								 4.17447 -180 1 0 7.11 98.3 A4.16325 4.17447 -180 0 0 2.94 94.13 ZM14.14 118.79 A4.16325 4.17447
								 -180 1 0 18.3 122.97 A4.16325 4.17447 -180 0 0 14.14 118.79 ZM42.06 118.79 A4.16325 4.17447 -180
								 1 0 46.22 122.97 A4.16325 4.17447 -180 0 0 42.06 118.79 ZM13.68 69.22 A4.16325 4.17447 -180 1 0
								 17.85 73.4 A4.16003 4.17124 -180 0 0 13.68 69.22 ZM42.37 69.22 A4.16325 4.17447 -180 1 0 46.53 73.4
								 A4.16003 4.17124 -180 0 0 42.37 69.22 Z" class="st2"/>
				</g>
				<g id="shape16537-7" transform="translate(10.1475,-13.2707)">
					<title>path6</title>
					<path d="M0 105.06 L35.18 105.06 L35.18 124.74 A1.17433 1.1775 0 0 1 34 125.92 L1.18 125.92 A1.17433 1.1775 0
								 0 1 0.01 124.74 L0.01 105.06 L0 105.06 Z" class="st3"/>
				</g>
				<g id="shape16538-11" transform="translate(10.1539,-34.1269)">
					<title>path8</title>
					<path d="M1.17 118.4 L33.99 118.4 A1.17433 1.1775 0 0 1 35.17 119.58 L35.17 125.92 L0 125.92 L0 119.58 A1.17433
								 1.1775 0 0 1 1.17 118.4 Z" class="st4"/>
				</g>
				<g id="shape16539-13" transform="translate(21.2313,-23.3799)">
					<title>path10</title>
					<path d="M11.56 123.22 A1.56685 1.57107 0 1 1 9.99 124.79 A1.56685 1.57107 0 0 1 11.56 123.22 ZM5 124.81 A1.56685
								 1.57107 -180 1 0 6.56 123.23 A1.56685 1.57107 -180 0 0 5 124.81 ZM0 124.81 A1.56685 1.57107 -180
								 1 0 1.57 123.23 A1.56685 1.57107 -180 0 0 -0 124.81 Z" class="st5"/>
				</g>
				<g id="shape16540-17" transform="translate(15.5944,-17.1941)">
					<title>path12</title>
					<path d="M8.34 124.9 L7.45 125.8 a0.405386 0.406478 0 0 1 -0.572688 -1.42109E-14 L0.24 119.17 a0.807555 0.809731
								 0 0 1 -9.4369E-15 -1.14846 L1.13 117.12 L8.34 124.32 a0.405386 0.406478 0 0 1 1.77636E-15 0.574231
								 ZM23.16 117.1 L15.95 124.31 a0.402169 0.403252 -180 0 0 -1.59872E-14 0.574231 L16.85 125.79 a0.402169
								 0.403252 -180 0 0 0.572688 -1.42109E-14 L24.05 119.15 a0.810772 0.812957 -180 0 0 -1.77636E-14 -1.14846
								 L23.15 117.1 L23.16 117.1 Z" class="st6"/>
				</g>
				<g id="shape16541-19" transform="translate(15.5944,-23.0584)">
					<title>path14</title>
					<path d="M7.32 117.32 L8.21 118.22 a0.405386 0.406478 0 0 1 1.24345E-14 0.574231 L1.14 125.92 L0.24 125.02 a0.807555
								 0.809731 0 0 1 -7.77156E-15 -1.14846 L6.74 117.32 a0.405386 0.406478 0 0 1 0.579123 0 ZM24.05 125
								 a0.807555 0.809731 -180 0 0 -1.42109E-14 -1.14846 L17.55 117.3 a0.405386 0.406478 -180 0 0 -0.572688
								 -1.42109E-14 L16.07 118.21 a0.405386 0.406478 -180 0 0 1.77636E-14 0.574231 L23.15 125.91 L24.04
								 125.01 L24.05 125 Z" class="st7"/>
				</g>
			</g>
		</g>
	</g>
</svg>
